_site/assets/images/prev.svg

<?xml version="1.0" encoding="UTF-8"?>
<svg width="17px" height="16px" viewBox="0 0 17 16" version="1.1" xmlns="http://www.w3.org/2000/svg" xmlns:xlink="http://www.w3.org/1999/xlink">
    <title>arrow-left</title>
    <g id="Page-1" stroke="none" stroke-width="1" fill="none" fill-rule="evenodd">
        <g id="Game-Item" transform="translate(-250.000000, -1659.000000)" fill="#0F202F" fill-rule="nonzero">
            <g id="main" transform="translate(250.000000, 264.000000)">
                <g id="navigation" transform="translate(0.000000, 1394.000000)">
                    <g id="arrow-left" transform="translate(0.000000, 1.000000)">
                        <path d="M8.30434664,15.8739161 L8.55795801,15.6203406 C8.726028,15.4522706 8.726028,15.1797577 8.55795801,15.0116518 L2.15601943,8.60971324 L15.6377358,8.60971324 C15.8754225,8.60971324 16.0681327,8.41700303 16.0681327,8.17931635 L16.0681327,7.82065227 C16.0681327,7.58296559 15.8754225,7.39025538 15.6377358,7.39025538 L2.15601943,7.39025538 L8.55795801,0.988316798 C8.726028,0.820246811 8.726028,0.547733845 8.55795801,0.379627992 L8.30434664,0.12605249 C8.13627666,-0.0420174966 7.86376369,-0.0420174966 7.69569371,0.12605249 L0.12605249,7.69565784 C-0.0420174966,7.86372783 -0.0420174966,8.13624079 0.12605249,8.30434664 L7.69569371,15.873952 C7.86376369,16.042022 8.13627666,16.042022 8.30434664,15.8739161 Z" id="Path"></path>
                    </g>
                </g>
            </g>
        </g>
    </g>
</svg>

<svg width="17" height="16" xmlns="http://www.w3.org/2000/svg"><path d="M8.304 15.874l.254-.254a.43.43 0 000-.608L2.156 8.61h13.482a.43.43 0 00.43-.43v-.36a.43.43 0 00-.43-.43H2.156L8.558.988a.43.43 0 000-.608L8.304.126a.43.43 0 00-.608 0l-7.57 7.57a.43.43 0 000 .608l7.57 7.57a.43.43 0 00.608 0z" fill-rule="nonzero"/></svg>
